X:1
T:Title
%%score { ( 1 3 ) | ( 2 4 ) }
L:1/8
M:6/4
K:Ab
V:1 treble nm="Grand Piano"
V:3 treble 
V:2 bass 
V:4 bass 
V:1
 z6 z4 [CE]2 | [CE]4 [CE]2 [DF]4 [DF]2 | [DG]4 [DG]2 [EA]4 [FB]2 | c4 c2 B4 B2 | %4
 [CEA]6- [CEA]4 [Ae]2 | [Ge]4 [GB]2 c4 B2 | d4 d2 [EAc]4[K:bass] B,2 | A,4 B,2 C2 D2 E2 | %8
 B,6- B,4[K:treble] [Gf]2 | e2 c2 [A,EA]2 E2- [EA]2 [DEB]2 |[M:5/4] [CEA]2- [CEA]2- [CEA]6 |] %11
V:2
 z6 z4 [A,,A,]2 | [A,,A,]4 [A,,A,]2 [D,A,]4 [D,A,]2 | [B,,E,]4 [B,,E,]2 [C,A,]4 [D,A,]2 | %3
 [E,A,E]4 [E,A,E]2 [E,DE]4 [E,DE]2 | A,,6- A,,4 [A,C]2 | [E,B,]4 [E,E]2[K:treble] [A,EA]4 [A,DA]2 | %6
 [A,FA]4 [A,FA]2[K:bass] A,,4 E,2 | C,4 E,2 A,2 B,2 C2 | E,6- E,4 [E,D]2 | %9
 [A,A]2- [A,EA]2[K:bass] A,,2 z2 C2 E,2 |[M:5/4] A,,2- A,,2- A,,6 |] %11
V:3
 x12 | x12 | x12 | x12 | x12 | x12 | x10[K:bass] x2 | x12 | x10[K:treble] x2 | z6 .[DB]6 | %10
[M:5/4] x10 |] %11
V:4
 x12 | x12 | x12 | x12 | x12 | x6[K:treble] x6 | x6[K:bass] x6 | x12 | x12 | .C6[K:bass] .E,6 | %10
[M:5/4] x10 |] %11

